X:1
T:D Major Samuel Babcock, 1795
T:Isaac Watts, 1706 The Song of Angels Above      86. 86. (C. M.)
T:Delaware
T:Transcribed from The Middlesex Harmony, 1795.
%%score [ 1 2 3 ]
L:1/8
Q:1/4=110
M:2/4
K:D
V:1 treble nm="Treble" snm="Tr."
V:2 treble-8 nm="Tenor" snm="T."
V:3 bass nm="Bass" snm="B."
V:1
 D2 | F3 G | A3 d | A2 d2 | d3 A | F2 GA/B/ | AG FE | F4 | d2 fd | B2 B2 | dc BA | e3 e | f2 dB | %13
w: 1.~In|aw- ful|state the|con- quering|God A-|scends his * *|shi- * ning *|throne;|While tune- ful|an- gels|sound * a- *|broad The|vic- tories *|
 A2 ^G2 | A4- | A2 z2 | A2 dd | d2 B2 | B2 AG | A3 A | Ad BG | AG FE | D4 | z4 |: A2 FE | D>E FF | %26
w: he has|won.||While tune- ful|an- gels|sound a- *|broad The|vic- * * tories|he * has *|won.||Now let me|rise * * and|
 AB cd | e3 e | f2 dB | A2 ^G2 | A4- | A2 z d | !fermata!d2 z e | !fermata!c2 z B | B2 d2 | %35
w: join * their *|song, And|be an *|an- gel|too;|* My|heart, my|hand, my|ear, my|
 !fermata!e2 z a | af df | gf ed | !fermata!c2 z A | Bd cB | AG FE | F4 :| %42
w: tongue, Here's|joy- * ful *|work * for *|you! Here's|joy- * ful *|work * for *|you!|
V:2
 A2 | A3 G | F3 A | d2 AB | A3 c | d2 ef/g/ | fe dc | d4 | A2 AA | d2 eg | fe d2 | c3 c | d2 fd | %13
w: 2.~I|would be-|gin the|mu- sic *|here, And|so my * *|soul * should *|rise;|O for some|heav'n- ly *|notes * to|bear My|spi- rit *|
 c2 B2 | A4- | A2 z2 | d2 BA | B2 gf | e2 d2 | c3 c | d2 g2 | fe dc | d4 | z4 |: F2 AA | d3 f | %26
w: to the|skies!||O for some|heav'n- ly *|notes to|bear My|spi- rit|to * the *|skies!||There, ye that|love my|
 e2 ed | c3 c | d2 fd | c2 B2 | A4- | A2 z A | !fermata!B2 z c | !fermata!A2 z d | e2 fd | %35
w: Sa- vior *|sit; There|I would *|fain have|place|* A-|mong your|thrones, or|at your *|
 !fermata!c2 z e | fa fd | ed cB | !fermata!A2 z A | d2 eg | fe dc | d4 :| %42
w: feet, So|I * might *|see * his *|face, So|I might *|see * his *|face.|
V:3
 D,2 | D,2 D,2 | D,3 D, | D,2 D,2 | D,3 A, | B,2 A,2 | D2 A,2 | D,4 | D,2 D,F, | G,2 E,2 | A,2 D2 | %11
 A,3 A, | D,2 D,2 | E,2 E,2 | A,,4- | A,,2 z2 | D,2 D,D, | G,2 B,2 | E,2 F,G, | A,3 A, | D3 G, | %21
 A,2 A,,2 | D,4 | z4 |: D,2 A,A, | B,3 D | E2 E,2 | A,3 A, | D,2 D,2 | E,2 E,2 | A,,4- | %31
 A,,2 z D, | !fermata!G,2 z E, | !fermata!F,2 z G, | E,2 D,2 | !fermata!A,2 z A, | D2 D2 | E2 E,2 | %38
 !fermata!A,2 z F, | G,2 E,2 | A,2 A,,2 | D,4 :| %42

